src/assets/icons/Upload.svg

<svg width="24" height="24" viewBox="0 0 24 24" fill="none" xmlns="http://www.w3.org/2000/svg">
<path fill-rule="evenodd" clip-rule="evenodd" d="M6.913 7.029C7.751 5.772 9.626 4 12.5 4C14.63 4 16.15 5.08 17.107 6.33C17.727 7.14238 18.1653 8.07851 18.392 9.075C19.177 9.202 20.087 9.505 20.897 10.089C22.092 10.948 23 12.373 23 14.5C23 16.626 22.092 18.051 20.897 18.912C19.753 19.735 18.41 20 17.5 20H13V13.414L14.293 14.707C14.4816 14.8892 14.7342 14.99 14.9964 14.9877C15.2586 14.9854 15.5094 14.8802 15.6948 14.6948C15.8802 14.5094 15.9854 14.2586 15.9877 13.9964C15.99 13.7342 15.8892 13.4816 15.707 13.293L12.707 10.293C12.5195 10.1055 12.2652 10.0002 12 10.0002C11.7348 10.0002 11.4805 10.1055 11.293 10.293L8.293 13.293C8.19749 13.3852 8.12131 13.4956 8.0689 13.6176C8.01649 13.7396 7.9889 13.8708 7.98775 14.0036C7.9866 14.1364 8.0119 14.2681 8.06218 14.391C8.11246 14.5138 8.18671 14.6255 8.2806 14.7194C8.3745 14.8133 8.48615 14.8875 8.60905 14.9378C8.73194 14.9881 8.86362 15.0134 8.9964 15.0122C9.12918 15.0111 9.2604 14.9835 9.3824 14.9311C9.50441 14.8787 9.61475 14.8025 9.707 14.707L11 13.414V20H7.5C6.423 20 4.83 19.685 3.478 18.712C2.075 17.701 1 16.026 1 13.5C1 10.974 2.075 9.299 3.478 8.288C4.602 7.479 5.891 7.125 6.913 7.028V7.029Z" fill="#E624BB"/>
</svg>

<svg xmlns="http://www.w3.org/2000/svg" width="24" height="24" fill="none"><path fill="#E624BB" fill-rule="evenodd" d="M6.913 7.029C7.751 5.772 9.626 4 12.5 4c2.13 0 3.65 1.08 4.607 2.33a7.133 7.133 0 0 1 1.285 2.745c.785.127 1.695.43 2.505 1.014C22.092 10.948 23 12.373 23 14.5c0 2.126-.908 3.551-2.103 4.412C19.753 19.735 18.41 20 17.5 20H13v-6.586l1.293 1.293a1 1 0 0 0 1.414-1.414l-3-3a1 1 0 0 0-1.414 0l-3 3a1 1 0 1 0 1.414 1.414L11 13.414V20H7.5c-1.077 0-2.67-.315-4.022-1.288C2.075 17.701 1 16.026 1 13.5s1.075-4.201 2.478-5.212c1.124-.809 2.413-1.163 3.435-1.26v.001Z" clip-rule="evenodd"/></svg>
